X:1
T:Light Will Greet Thee By and By
T:Light Will Greet Thee By and By
T:L. M. Burkholder, 1900
T:Latta C. Lord, 1871
T:Public Domain Courtesy of the Cyber Hymnal™
T:Public Domain Courtesy of the Cyber Hymnal™
C:L. M. Burkholder, 1900
Z:Public Domain
Z:Courtesy of the Cyber Hymnal™
%%score ( 1 2 ) ( 3 4 )
L:1/8
Q:1/4=107
M:4/4
K:Bb
V:1 treble 
V:2 treble 
V:3 bass 
V:4 bass 
V:1
 [B,D]3 [CE] [DF]2 [DB]2 | [DB]2 [FA]2 [EG]2 [GB]2 | [GB]3 [EG] [DF]2 [EG]2 | [DF]2 [CE]2 [B,D]4 | %4
w: 1.~Is thy trem- bling|heart a- wea- ry?|Are thy foot- steps|al- most gone?|
w: 2.~Is thy spir- it|sad with- in thee?|Raise thy heart in|ear- nest prayer;|
w: 3.~Has thy spir- it|grown a- wea- ry?|Do not fal- ter|in the strife!|
 [B,D]3 [CE] [DF]2 [DB]2 | [DB]2 [FA]2 [EG]2 [GB]2 | [GB]3 [EG] F2 [DB]2 | [DB]2 [CA]2 [DB]4 | %8
w: Does life seem a|wear- y bur- den?|Cour- age, bro- ther,|strug- gle on!|
w: Trust a Fa- ther’s|lov- ing kind- ness,|Trust a Fa- ther’s|ten- der care.|
w: God has work for|thee, my bro- ther,|As thou tread’st the|path of life.|
 [EA]3 [DB] [Fc]2 [Fc]2 | [Fc]2 [Fd]2 [DB]2 [DF]2 | [EA]3 [DB] [Fc]2 [Fc]2 | [Fc]2 [Fd]2 [DB]3 z | %12
w: Bear it cheer- ful-|ly and brave- ly,|Do not stop to|weep or sigh;|
w: Call up- on Him|in thy sor- row,|He will hear thy|fal- tering cry;|
w: Dark- ness may ob-|scure thy path- way,|Clouds may ga- ther|in the sky;|
 [B,D]3 [CE] [DF]2 [DB]2 | [DB]2 [FA]2 [EG]2 [GB]2 | [GB]3 [EG] F2 [DB]2 | [DB]2 [CA]2 [DB]4 || %16
w: Af- ter night the|morn- ing dawn- eth,|Light will greet thee|by and by.|
w: Tho’ thou seest no|sign of dawn- ing,|Light shall greet thee|by and by.|
w: Storms may rage, but|do not mur- mur,|Light shall greet thee|by and by.|
"^Refrain" [EA]3 [DB] [Fc]2 [Fc]2 | [Fc]2 [Fc]2 [DB]2 [DF]2 | [EA]3 [DB] [Fc]3 z | %19
w: |||
w: By and by the|morn- ing dawn- eth,|By and by,|
w: |||
 [Fc]3 [Fd] [DB]3 z | [B,D]3 [CE] [DF]2 [DB]2 | [DB]2 [FA]2 [EG]2 [GB]2 | [GB]3 [EG] F2 [DB]2 | %23
w: ||||
w: by and by.|Tho’ thou see’st no|sign of dawn- ing,|Light will greet thee|
w: ||||
 [DB]2 [CA]2 [DB]4 |] %24
w: |
w: by and by.|
w: |
V:2
 x8 | x8 | x8 | x8 | x8 | x8 | x4 F2 x2 | x8 | x8 | x8 | x8 | x8 | x8 | x8 | x4 F2 x2 | x8 || x8 | %17
 x8 | x8 | x8 | x8 | x8 | x4 F2 x2 | x8 |] %24
V:3
 [B,,B,]3 [B,,B,] [B,,B,]2 [B,,B,]2 | [B,,B,]2 [B,,B,]2 [E,B,]2 [E,B,]2 | %2
 [E,B,]3 [E,B,] [F,B,]2 [F,B,]2 | [F,,F,B,]2 [F,,F,]2 [B,,F,]4 | %4
 [B,,B,]3 [B,,B,] [B,,B,]2 [B,,B,]2 | [B,,B,]2 [B,,B,]2 [E,B,]2 [E,B,]2 | %6
 [E,B,]3 [E,B,] [D,B,]2 [B,,B,]2 | [F,B,]2 F,2 [B,,F,]4 | F,3 [F,B,] [F,A,]2 [F,A,]2 | %9
 [F,A,]2 [F,A,]2 B,2 B,2 | [F,C]3 [F,B,] [F,A,]2 [F,A,]2 | [F,A,]2 [F,A,]2 B,3 z | %12
 [B,,B,]3 [B,,B,] [B,,B,]2 [B,,B,]2 | [B,,B,]2 [B,,B,]2 [E,B,]2 [E,B,]2 | %14
 [E,B,]3 [E,B,] [D,B,]2 [B,,B,]2 | [F,B,]2 F,2 [B,,F,]4 || F,3 [F,B,] [F,A,]2 [F,A,]2 | %17
 [F,A,]2 [F,A,]2 B,2 B,2 | [F,C]3 [F,B,] [F,A,]3 z | [F,A,]3 [F,A,] B,3 z | %20
 [B,,B,]3 [B,,B,] [B,,B,]2 [B,,B,]2 | [B,,B,]2 [B,,B,]2 [E,B,]2 [E,B,]2 | %22
 [E,B,]3 [E,B,] [D,B,]2 [B,,B,]2 | [F,B,]2 F,2 [B,,F,]4 |] %24
V:4
 x8 | x8 | x8 | x8 | x8 | x8 | x8 | x2 F,2 x4 | F,3 x5 | x4 B,2 B,2 | x8 | x4 B,3 x | x8 | x8 | %14
 x8 | x2 F,2 x4 || F,3 x5 | x4 B,2 B,2 | x8 | x4 B,3 x | x8 | x8 | x8 | x2 F,2 x4 |] %24

